images/comp.svg

<svg height="250" viewBox="0 0 250 250" width="250" xmlns="http://www.w3.org/2000/svg"><path d="m125 250c69.035156 0 125-55.964844 125-125s-55.964844-125-125-125-125 55.964844-125 125 55.964844 125 125 125zm0 0" fill="#070a0e"/><path d="m125 240.683594c63.890625 0 115.683594-51.792969 115.683594-115.683594s-51.792969-115.683594-115.683594-115.683594-115.683594 51.792969-115.683594 115.683594 51.792969 115.683594 115.683594 115.683594zm0 0" fill="#070a0e"/><path d="m72.261719 166.945312c-3.738281-2.289062-6.023438-6.363281-6.023438-10.734374v-24.421876c0-.933593.25-1.835937.714844-2.636718 1.453125-2.503906 4.675781-3.351563 7.179687-1.886719l55.113282 32.132813c3.222656 1.886718 5.207031 5.324218 5.207031 9.0625v25.304687c0 1.152344-.3125 2.304687-.914063 3.289063-1.820312 2.96875-5.695312 3.90625-8.664062 2.085937zm82.15625-46.371093c3.222656 1.886719 5.207031 5.324219 5.207031 9.0625v51.34375c0 1.519531-.816406 2.921875-2.132812 3.65625l-12.070313 6.792969c-.148437.082031-.316406.148437-.484375.199218v-28.507812c0-3.691406-1.9375-7.113282-5.109375-9.011719l-48.402344-28.960937v-32.183594c0-.933594.25-1.835938.714844-2.636719 1.453125-2.503906 4.675781-3.355469 7.179687-1.886719zm24.121093-37.921875c3.238282 1.867187 5.222657 5.339844 5.222657 9.078125v74.996093c0 1.535157-.851563 2.953126-2.203125 3.6875l-11.433594 6.175782v-52.210938c0-3.6875-1.9375-7.09375-5.089844-8.996094l-49.472656-29.675781v-30.53125c0-.933593.25-1.835937.699219-2.636719 1.453125-2.503906 4.671875-3.355468 7.175781-1.902343zm0 0" fill="#00d395" fill-rule="evenodd"/></svg>

<svg xmlns="http://www.w3.org/2000/svg" xmlns:xlink="http://www.w3.org/1999/xlink" width="250px" height="250px" viewBox="0 0 250 250" version="1.1">
<g id="surface1">
<path style=" stroke:none;fill-rule:nonzero;fill:rgb(2.745098%,3.921569%,5.490196%);fill-opacity:1;" d="M 125 250 C 194.035156 250 250 194.035156 250 125 C 250 55.964844 194.035156 0 125 0 C 55.964844 0 0 55.964844 0 125 C 0 194.035156 55.964844 250 125 250 Z M 125 250 "/>
<path style=" stroke:none;fill-rule:nonzero;fill:rgb(2.745098%,3.921569%,5.490196%);fill-opacity:1;" d="M 125 240.683594 C 188.890625 240.683594 240.683594 188.890625 240.683594 125 C 240.683594 61.109375 188.890625 9.316406 125 9.316406 C 61.109375 9.316406 9.316406 61.109375 9.316406 125 C 9.316406 188.890625 61.109375 240.683594 125 240.683594 Z M 125 240.683594 "/>
<path style=" stroke:none;fill-rule:evenodd;fill:rgb(0%,82.745099%,58.431375%);fill-opacity:1;" d="M 72.261719 166.945312 C 68.523438 164.65625 66.238281 160.582031 66.238281 156.210938 L 66.238281 131.789062 C 66.238281 130.855469 66.488281 129.953125 66.953125 129.152344 C 68.40625 126.648438 71.628906 125.800781 74.132812 127.265625 L 129.246094 159.398438 C 132.46875 161.285156 134.453125 164.722656 134.453125 168.460938 L 134.453125 193.765625 C 134.453125 194.917969 134.140625 196.070312 133.539062 197.054688 C 131.71875 200.023438 127.84375 200.960938 124.875 199.140625 Z M 154.417969 120.574219 C 157.640625 122.460938 159.625 125.898438 159.625 129.636719 L 159.625 180.980469 C 159.625 182.5 158.808594 183.902344 157.492188 184.636719 L 145.421875 191.429688 C 145.273438 191.511719 145.105469 191.578125 144.9375 191.628906 L 144.9375 163.121094 C 144.9375 159.429688 143 156.007812 139.828125 154.109375 L 91.425781 125.148438 L 91.425781 92.964844 C 91.425781 92.03125 91.675781 91.128906 92.140625 90.328125 C 93.59375 87.824219 96.816406 86.972656 99.320312 88.441406 Z M 178.539062 82.652344 C 181.777344 84.519531 183.761719 87.992188 183.761719 91.730469 L 183.761719 166.726562 C 183.761719 168.261719 182.910156 169.679688 181.558594 170.414062 L 170.125 176.589844 L 170.125 124.378906 C 170.125 120.691406 168.1875 117.285156 165.035156 115.382812 L 115.5625 85.707031 L 115.5625 55.175781 C 115.5625 54.242188 115.8125 53.339844 116.261719 52.539062 C 117.714844 50.035156 120.933594 49.183594 123.4375 50.636719 Z M 178.539062 82.652344 "/>
</g>
</svg>
